src/img/github-icon.svg

<svg xmlns="http://www.w3.org/2000/svg" xmlns:xlink="http://www.w3.org/1999/xlink" version="1.1" id="Capa_1" x="0px" y="0px" width="438.549px" height="438.549px" viewBox="0 0 438.549 438.549" style="enable-background:new 0 0 438.549 438.549;" xml:space="preserve">
<g>
	<path d="M409.132,114.573c-19.608-33.596-46.205-60.194-79.798-79.8C295.736,15.166,259.057,5.365,219.271,5.365   c-39.781,0-76.472,9.804-110.063,29.408c-33.596,19.605-60.192,46.204-79.8,79.8C9.803,148.168,0,184.854,0,224.63   c0,47.78,13.94,90.745,41.827,128.906c27.884,38.164,63.906,64.572,108.063,79.227c5.14,0.954,8.945,0.283,11.419-1.996   c2.475-2.282,3.711-5.14,3.711-8.562c0-0.571-0.049-5.708-0.144-15.417c-0.098-9.709-0.144-18.179-0.144-25.406l-6.567,1.136   c-4.187,0.767-9.469,1.092-15.846,1c-6.374-0.089-12.991-0.757-19.842-1.999c-6.854-1.231-13.229-4.086-19.13-8.559   c-5.898-4.473-10.085-10.328-12.56-17.556l-2.855-6.57c-1.903-4.374-4.899-9.233-8.992-14.559   c-4.093-5.331-8.232-8.945-12.419-10.848l-1.999-1.431c-1.332-0.951-2.568-2.098-3.711-3.429c-1.142-1.331-1.997-2.663-2.568-3.997   c-0.572-1.335-0.098-2.43,1.427-3.289c1.525-0.859,4.281-1.276,8.28-1.276l5.708,0.853c3.807,0.763,8.516,3.042,14.133,6.851   c5.614,3.806,10.229,8.754,13.846,14.842c4.38,7.806,9.657,13.754,15.846,17.847c6.184,4.093,12.419,6.136,18.699,6.136   c6.28,0,11.704-0.476,16.274-1.423c4.565-0.952,8.848-2.383,12.847-4.285c1.713-12.758,6.377-22.559,13.988-29.41   c-10.848-1.14-20.601-2.857-29.264-5.14c-8.658-2.286-17.605-5.996-26.835-11.14c-9.235-5.137-16.896-11.516-22.985-19.126   c-6.09-7.614-11.088-17.61-14.987-29.979c-3.901-12.374-5.852-26.648-5.852-42.826c0-23.035,7.52-42.637,22.557-58.817   c-7.044-17.318-6.379-36.732,1.997-58.24c5.52-1.715,13.706-0.428,24.554,3.853c10.85,4.283,18.794,7.952,23.84,10.994   c5.046,3.041,9.089,5.618,12.135,7.708c17.705-4.947,35.976-7.421,54.818-7.421s37.117,2.474,54.823,7.421l10.849-6.849   c7.419-4.57,16.18-8.758,26.262-12.565c10.088-3.805,17.802-4.853,23.134-3.138c8.562,21.509,9.325,40.922,2.279,58.24   c15.036,16.18,22.559,35.787,22.559,58.817c0,16.178-1.958,30.497-5.853,42.966c-3.9,12.471-8.941,22.457-15.125,29.979   c-6.191,7.521-13.901,13.85-23.131,18.986c-9.232,5.14-18.182,8.85-26.84,11.136c-8.662,2.286-18.415,4.004-29.263,5.146   c9.894,8.562,14.842,22.077,14.842,40.539v60.237c0,3.422,1.19,6.279,3.572,8.562c2.379,2.279,6.136,2.95,11.276,1.995   c44.163-14.653,80.185-41.062,108.068-79.226c27.88-38.161,41.825-81.126,41.825-128.906   C438.536,184.851,428.728,148.168,409.132,114.573z"/>
</g>
<div xmlns="" id="divScriptsUsed" style="display: none"/><script xmlns="" id="globalVarsDetection" src="chrome-extension://cmkdbmfndkfgebldhnkbfhlneefdaaip/js/wrs_env.js"/></svg>

<?xml version="1.0" encoding="UTF-8" standalone="no"?>
<!DOCTYPE svg PUBLIC "-//W3C//DTD SVG 1.1//EN" "http://www.w3.org/Graphics/SVG/1.1/DTD/svg11.dtd">
<svg width="100%" height="100%" viewBox="0 0 439 439" version="1.1" xmlns="http://www.w3.org/2000/svg" xmlns:xlink="http://www.w3.org/1999/xlink" xml:space="preserve" xmlns:serif="http://www.serif.com/" style="fill-rule:evenodd;clip-rule:evenodd;stroke-linejoin:round;stroke-miterlimit:1.41421;">
    <path d="M409.132,114.573C389.524,80.977 362.927,54.379 329.334,34.773C295.736,15.166 259.057,5.365 219.271,5.365C179.49,5.365 142.799,15.169 109.208,34.773C75.612,54.378 49.016,80.977 29.408,114.573C9.803,148.168 0,184.854 0,224.63C0,272.41 13.94,315.375 41.827,353.536C69.711,391.7 105.733,418.108 149.89,432.763C155.03,433.717 158.835,433.046 161.309,430.767C163.784,428.485 165.02,425.627 165.02,422.205C165.02,421.634 164.971,416.497 164.876,406.788C164.778,397.079 164.732,388.609 164.732,381.382L158.165,382.518C153.978,383.285 148.696,383.61 142.319,383.518C135.945,383.429 129.328,382.761 122.477,381.519C115.623,380.288 109.248,377.433 103.347,372.96C97.449,368.487 93.262,362.632 90.787,355.404L87.932,348.834C86.029,344.46 83.033,339.601 78.94,334.275C74.847,328.944 70.708,325.33 66.521,323.427L64.522,321.996C63.19,321.045 61.954,319.898 60.811,318.567C59.669,317.236 58.814,315.904 58.243,314.57C57.671,313.235 58.145,312.14 59.67,311.281C61.195,310.422 63.951,310.005 67.95,310.005L73.658,310.858C77.465,311.621 82.174,313.9 87.791,317.709C93.405,321.515 98.02,326.463 101.637,332.551C106.017,340.357 111.294,346.305 117.483,350.398C123.667,354.491 129.902,356.534 136.182,356.534C142.462,356.534 147.886,356.058 152.456,355.111C157.021,354.159 161.304,352.728 165.303,350.826C167.016,338.068 171.68,328.267 179.291,321.416C168.443,320.276 158.69,318.559 150.027,316.276C141.369,313.99 132.422,310.28 123.192,305.136C113.957,299.999 106.296,293.62 100.207,286.01C94.117,278.396 89.119,268.4 85.22,256.031C81.319,243.657 79.368,229.383 79.368,213.205C79.368,190.17 86.888,170.568 101.925,154.388C94.881,137.07 95.546,117.656 103.922,96.148C109.442,94.433 117.628,95.72 128.476,100.001C139.326,104.284 147.27,107.953 152.316,110.995C157.362,114.036 161.405,116.613 164.451,118.703C182.156,113.756 200.427,111.282 219.269,111.282C238.111,111.282 256.386,113.756 274.092,118.703L284.941,111.854C292.36,107.284 301.121,103.096 311.203,99.289C321.291,95.484 329.005,94.436 334.337,96.151C342.899,117.66 343.662,137.073 336.616,154.391C351.652,170.571 359.175,190.178 359.175,213.208C359.175,229.386 357.217,243.705 353.322,256.174C349.422,268.645 344.381,278.631 338.197,286.153C332.006,293.674 324.296,300.003 315.066,305.139C305.834,310.279 296.884,313.989 288.226,316.275C279.564,318.561 269.811,320.279 258.963,321.421C268.857,329.983 273.805,343.498 273.805,361.96L273.805,422.197C273.805,425.619 274.995,428.476 277.377,430.759C279.756,433.038 283.513,433.709 288.653,432.754C332.816,418.101 368.838,391.692 396.721,353.528C424.601,315.367 438.546,272.402 438.546,224.622C438.536,184.851 428.728,148.168 409.132,114.573Z" style="fill:white;fill-rule:nonzero;"/>
</svg>
